; generated by Slic3r 1.2.9 on 2016-07-14 at 22:41:21

; external perimeters extrusion width = 0.40mm
; perimeters extrusion width = 0.40mm
; infill extrusion width = 0.40mm
; solid infill extrusion width = 0.40mm
; top infill extrusion width = 0.40mm

M107
M104 S215 ; set temperature
G28 ; home all axes
G1 Z5 F5000 ; lift nozzle

M109 S215 ; wait for temperature to be reached
G21 ; set units to millimeters
G90 ; use absolute coordinates
M82 ; use absolute distances for extrusion
G92 E0
G1 E-8.00000 F2400.00000
G92 E0
G1 Z0.900 F7800.000
G1 X17.018 Y0.000 F7800.000
G1 Z0.200 F7800.000
G1 E8.00000 F2400.00000
G1 X17.018 Y10.000 E8.52245 F1080.000
G1 X16.621 Y12.438 E8.65149
G1 X15.470 Y14.623 E8.78053
G1 X13.684 Y16.330 E8.90957
G1 X11.449 Y17.381 E9.03861
G1 X9.343 Y17.676 E9.14974
G1 X-9.343 Y17.676 E10.12595
G1 X-11.780 Y17.278 E10.25499
G1 X-13.966 Y16.127 E10.38403
G1 X-15.672 Y14.342 E10.51307
G1 X-16.723 Y12.107 E10.64211
G1 X-17.018 Y10.000 E10.75324
G1 X-17.018 Y-10.000 E11.79814
G1 X-16.621 Y-12.438 E11.92718
G1 X-15.470 Y-14.623 E12.05622
G1 X-13.684 Y-16.330 E12.18526
G1 X-11.449 Y-17.381 E12.31430
G1 X-9.343 Y-17.676 E12.42543
G1 X9.343 Y-17.676 E13.40164
G1 X11.780 Y-17.278 E13.53068
G1 X13.966 Y-16.127 E13.65972 F1080.000
G1 X15.672 Y-14.342 E13.78876
G1 X16.723 Y-12.107 E13.91780
G1 X17.018 Y-10.000 E14.02893
G1 X17.018 Y-0.060 E14.54825
G1 X16.599 Y-0.060 F7800.000
G1 X16.599 Y10.000 E15.07383 F1080.000
G1 X16.202 Y12.368 E15.19927
G1 X15.054 Y14.477 E15.32472
G1 X13.280 Y16.095 E15.45017
G1 X11.076 Y17.047 E15.57561
G1 X9.343 Y17.257 E15.66681
G1 X-9.343 Y17.257 E16.64303
G1 X-11.711 Y16.859 E16.76848
G1 X-13.819 Y15.711 E16.89392
G1 X-15.438 Y13.938 E17.01937
G1 X-16.389 Y11.733 E17.14481
G1 X-16.599 Y10.000 E17.23602
G1 X-16.599 Y-10.000 E18.28091
G1 X-16.202 Y-12.368 E18.40636
G1 X-15.054 Y-14.477 E18.53181
G1 X-13.280 Y-16.095 E18.65725
G1 X-11.076 Y-17.047 E18.78270
G1 X-9.343 Y-17.257 E18.87390
G1 X9.343 Y-17.257 E19.85012
G1 X11.711 Y-16.859 E19.97556
G1 X13.819 Y-15.711 E20.10101 F1080.000
G1 X15.438 Y-13.938 E20.22645
G1 X16.389 Y-11.733 E20.35190
G1 X16.599 Y-10.000 E20.44310
G1 X16.599 Y-0.120 E20.95928
G1 X16.180 Y-0.120 F7800.000
G1 X16.180 Y10.000 E21.48800 F1080.000
G1 X15.783 Y12.296 E21.60974
G1 X14.638 Y14.326 E21.73149
G1 X12.878 Y15.853 E21.85323
G1 X10.707 Y16.700 E21.97498
G1 X9.343 Y16.838 E22.04664
G1 X-9.343 Y16.838 E23.02285
G1 X-11.639 Y16.441 E23.14460
G1 X-13.668 Y15.296 E23.26635
G1 X-15.196 Y13.535 E23.38809
G1 X-16.043 Y11.365 E23.50984
G1 X-16.180 Y10.000 E23.58149
G1 X-16.180 Y-10.000 E24.62639
G1 X-15.783 Y-12.296 E24.74814
G1 X-14.638 Y-14.326 E24.86988
G1 X-12.878 Y-15.853 E24.99163
G1 X-10.707 Y-16.700 E25.11337
G1 X-9.343 Y-16.838 E25.18503
G1 X9.343 Y-16.838 E26.16125
G1 X11.639 Y-16.441 E26.28299
G1 X13.668 Y-15.296 E26.40474 F1080.000
G1 X15.196 Y-13.535 E26.52648
G1 X16.043 Y-11.365 E26.64823
G1 X16.180 Y-10.000 E26.71989
G1 X16.180 Y-0.180 E27.23293
G1 X15.762 Y-0.180 F7800.000
G1 X15.762 Y10.000 E27.76479 F1080.000
G1 X15.365 Y12.222 E27.88272
G1 X14.223 Y14.169 E28.00064
G1 X12.478 Y15.601 E28.11857
G1 X9.343 Y16.419 E28.28786
G1 X-9.343 Y16.419 E29.26408
G1 X-11.565 Y16.022 E29.38200
G1 X-13.512 Y14.880 E29.49993
G1 X-14.944 Y13.135 E29.61786
G1 X-15.762 Y10.000 E29.78715
G1 X-15.762 Y-10.000 E30.83205
G1 X-15.365 Y-12.222 E30.94998
G1 X-14.223 Y-14.169 E31.06790
G1 X-12.478 Y-15.601 E31.18583
G1 X-9.343 Y-16.419 E31.35512
G1 X9.343 Y-16.419 E32.33134
G1 X11.565 Y-16.022 E32.44927
G1 X13.512 Y-14.880 E32.56719 F1080.000
G1 X14.944 Y-13.135 E32.68512
G1 X15.762 Y-10.000 E32.85441
G1 X15.762 Y-0.240 E33.36432
G1 E25.36432 F2400.00000
G92 E0
G1 Z1.200 F7800.000
G1 X13.322 Y-0.240 F7800.000
G1 Z0.200 F7800.000
G1 E8.00000 F2400.00000
G1 X13.322 Y11.648 E8.62110 F1080.000
G1 X10.991 Y13.979 E8.79333
G1 X-10.991 Y13.979 E9.94178
G1 X-13.322 Y11.648 E10.11401
G1 X-13.322 Y-11.648 E11.33114
G1 X-10.991 Y-13.979 E11.50337
G1 X10.991 Y-13.979 E12.65182
G1 X13.322 Y-11.648 E12.82405
G1 X13.322 Y-0.300 E13.41694 F1080.000
G1 X12.903 Y-0.300 F7800.000
G1 X12.903 Y11.475 E14.03211 F1080.000
G1 X10.817 Y13.560 E14.18621
G1 X-10.817 Y13.560 E15.31653
G1 X-12.903 Y11.475 E15.47063
G1 X-12.903 Y-11.475 E16.66963
G1 X-10.817 Y-13.560 E16.82373
G1 X10.817 Y-13.560 E17.95405
G1 X12.903 Y-11.475 E18.10815 F1080.000
G1 X12.903 Y-0.360 E18.68884
G1 X12.484 Y-0.360 F7800.000
G1 X12.484 Y11.301 E19.29809 F1080.000
G1 X10.644 Y13.142 E19.43406
G1 X-10.644 Y13.142 E20.54625
G1 X-12.484 Y11.301 E20.68222
G1 X-12.484 Y-11.301 E21.86309
G1 X-10.644 Y-13.142 E21.99906
G1 X10.644 Y-13.142 E23.11125
G1 X12.484 Y-11.301 E23.24722
G1 X12.484 Y-0.420 E23.81571 F1080.000
G1 X12.065 Y-0.420 F7800.000
G1 X12.065 Y11.128 E24.41902 F1080.000
G1 X10.470 Y12.723 E24.53687
G1 X-10.470 Y12.723 E25.63092
G1 X-12.065 Y11.128 E25.74877
G1 X-12.065 Y-11.128 E26.91151
G1 X-10.470 Y-12.723 E27.02935
G1 X10.470 Y-12.723 E28.12341
G1 X12.065 Y-11.128 E28.24125 F1080.000
G1 X12.065 Y-0.480 E28.79754
G1 X11.647 Y-0.480 F7800.000
G1 X11.647 Y10.954 E29.39492 F1080.000
G1 X10.297 Y12.304 E29.49464
G1 X-10.297 Y12.304 E30.57057
G1 X-11.647 Y10.954 E30.67028
G1 X-11.647 Y-10.954 E31.81489
G1 X-10.297 Y-12.304 E31.91460
G1 X10.297 Y-12.304 E32.99053
G1 X11.647 Y-10.954 E33.09024
G1 X11.647 Y-0.540 E33.63434 F1080.000
G1 X11.228 Y-0.540 F7800.000
G1 X11.228 Y10.781 E34.22579 F1080.000
G1 X10.123 Y11.885 E34.30737
G1 X-10.123 Y11.885 E35.36517
G1 X-11.228 Y10.781 E35.44676
G1 X-11.228 Y-10.781 E36.57324
G1 X-10.123 Y-11.885 E36.65482
G1 X10.123 Y-11.885 E37.71262
G1 X11.228 Y-10.781 E37.79420 F1080.000
G1 X11.228 Y-0.600 E38.32610
G1 X10.809 Y-0.600 F7800.000
G1 X10.809 Y10.607 E38.91162 F1080.000
G1 X9.950 Y11.466 E38.97507
G1 X-9.950 Y11.466 E40.01474
G1 X-10.809 Y10.607 E40.07819
G1 X-10.809 Y-10.607 E41.18655
G1 X-9.950 Y-11.466 E41.25000
G1 X9.950 Y-11.466 E42.28967
G1 X10.809 Y-10.607 E42.35312
G1 X10.809 Y-0.660 E42.87282 F1080.000
G1 X10.390 Y-0.660 F7800.000
G1 X10.390 Y10.434 E43.45241 F1080.000
G1 X9.776 Y11.047 E43.49773
G1 X-9.776 Y11.047 E44.51927
G1 X-10.390 Y10.434 E44.56460
G1 X-10.390 Y-10.434 E45.65482
G1 X-9.776 Y-11.047 E45.70014
G1 X9.776 Y-11.047 E46.72168
G1 X10.390 Y-10.434 E46.76701 F1080.000
G1 X10.390 Y-0.720 E47.27450
G1 X9.971 Y-0.720 F7800.000
G1 X9.971 Y10.260 E47.84817 F1080.000
G1 X9.603 Y10.628 E47.87536
G1 X-9.603 Y10.628 E48.87877
G1 X-9.971 Y10.260 E48.90597
G1 X-9.971 Y-10.260 E49.97806
G1 X-9.603 Y-10.628 E50.00525
G1 X9.603 Y-10.628 E51.00866
G1 X9.971 Y-10.260 E51.03586
G1 X9.971 Y-0.780 E51.53115 F1080.000
G1 X9.552 Y-0.780 F7800.000
G1 X9.552 Y10.087 E52.09888 F1080.000
G1 X9.429 Y10.209 E52.10795
G1 X-9.429 Y10.209 E53.09323
G1 X-9.552 Y10.087 E53.10230
G1 X-9.552 Y-10.087 E54.15626
G1 X-9.429 Y-10.209 E54.16532
G1 X9.429 Y-10.209 E55.15060
G1 X9.552 Y-10.087 E55.15967 F1080.000
G1 X9.552 Y-0.840 E55.64277
G1 X9.143 Y-0.840 F7800.000
G1 X9.143 Y9.800 E56.08816 F1008.000
G1 X-9.143 Y9.800 E56.85359 F1008.000
G1 X-9.143 Y-9.800 E57.67405
G1 X9.143 Y-9.800 E58.43949
G1 X9.143 Y-0.900 E58.81204
G1 X8.796 Y-0.640 F7800.000
G1 X8.807 Y-0.900 F7800.000
G1 X8.807 Y9.464 E59.24590 F1440.000
G1 X-8.807 Y9.464 E59.98323 F1440.000
G1 X-8.807 Y-9.464 E60.77560
G1 X8.807 Y-9.464 E61.51293
G1 X8.807 Y-0.960 E61.86893
G1 X8.471 Y-5.922 F7800.000
G1 X8.471 Y9.129 E62.49896 F1440.000
G1 X-8.471 Y9.129 E63.20820 F1440.000
G1 X-8.471 Y-9.129 E63.97246
G1 X8.471 Y-9.129 E64.68170
G1 X8.471 Y-5.982 E64.81342
G1 X6.520 Y-4.279 F7800.000
G1 X6.918 Y-3.588 E64.84682 F1008.000
G1 X6.918 Y3.409 E65.13972
G1 X6.476 Y4.175 E65.17673
G1 X0.420 Y7.670 E65.46944
G1 X-0.382 Y7.671 E65.50302
G1 X-6.483 Y4.149 E65.79790
G1 X-6.882 Y3.458 E65.83130
G1 X-6.882 Y-3.587 E66.12619
G1 X-6.632 Y-4.035 E66.14767
G1 X-6.480 Y-4.281 E66.15977
G1 X-0.383 Y-7.801 E66.45445
G1 X0.419 Y-7.801 E66.48803 F1008.000
G1 X6.468 Y-4.309 E66.78040
G1 X6.913 Y-4.349 F7800.000
G1 X6.635 Y-4.600 F7800.000
G1 X6.765 Y-4.525 E66.78668 F1440.000
G1 X7.254 Y-3.678 E66.82761
G1 X7.254 Y3.499 E67.12803
G1 X6.722 Y4.420 E67.17257
G1 X0.515 Y8.003 E67.47259
G1 X-0.474 Y8.005 E67.51399
G1 X-6.728 Y4.395 E67.81629
G1 X-7.217 Y3.548 E67.85722
G1 X-7.217 Y-3.674 E68.15951
G1 X-6.921 Y-4.205 E68.18497
G1 X-6.721 Y-4.529 E68.20093
G1 X-0.478 Y-8.134 E68.50268
G1 X0.511 Y-8.136 E68.54409 F1440.000
G1 X6.583 Y-4.630 E68.83760
G1 X6.751 Y-4.921 F7800.000
G1 X7.011 Y-4.771 E68.85015 F1440.000
G1 X7.590 Y-3.768 E68.89861
G1 X7.590 Y3.589 E69.20656
G1 X6.968 Y4.666 E69.25863
G1 X0.610 Y8.336 E69.56595
G1 X0.140 Y8.350 E69.58560
G1 X-0.567 Y8.340 E69.61519
G1 X-6.974 Y4.640 E69.92490
G1 X-7.553 Y3.638 E69.97336
G1 X-7.553 Y-3.761 E70.28307
G1 X-7.211 Y-4.375 E70.31249
G1 X-6.962 Y-4.778 E70.33231
G1 X-0.573 Y-8.466 E70.64113
G1 X-0.103 Y-8.481 E70.66079 F1440.000
G1 X0.603 Y-8.470 E70.69038
G1 X6.699 Y-4.951 E70.98503
G1 X6.290 Y-5.463 F7800.000
G1 X2.818 Y-8.935 E71.19273 F720.000
G1 X3.298 Y-8.935 E71.21303
G1 X8.277 Y-3.955 E71.51096
G1 X8.277 Y-4.435 E71.53126
G1 X3.778 Y-8.935 E71.80049
G1 X4.257 Y-8.935 E71.82079
G1 X8.277 Y-4.915 E72.06132
G1 X8.277 Y-5.394 E72.08161
G1 X4.737 Y-8.935 E72.29344
G1 X5.217 Y-8.935 E72.31374
G1 X8.277 Y-5.874 E72.49686
G1 X8.277 Y-6.354 E72.51716
G1 X5.696 Y-8.935 E72.67158
G1 X6.176 Y-8.935 E72.69188
G1 X8.277 Y-6.833 E72.81760
G1 X8.277 Y-7.313 E72.83789
G1 X6.656 Y-8.935 E72.93491
G1 X7.136 Y-8.935 E72.95521
G1 X8.277 Y-7.793 E73.02352
G1 X8.277 Y-8.273 E73.04382
G1 X7.615 Y-8.935 E73.08344
G1 X8.095 Y-8.935 E73.10373
G1 X8.277 Y-8.752 E73.11464
G1 X5.155 Y-6.118 F7800.000
G1 X2.338 Y-8.935 E73.28314 F720.000
G1 X1.859 Y-8.935 E73.30344
G1 X4.020 Y-6.774 E73.43273
G1 X2.885 Y-7.429 F7800.000
G1 X1.379 Y-8.935 E73.52282 F720.000
G1 X0.899 Y-8.935 E73.54311
G1 X1.750 Y-8.084 E73.59399
G1 X0.691 Y-8.664 F7800.000
G1 X0.420 Y-8.935 E73.61020 F720.000
G1 X0.203 Y-8.671 E73.62462
G1 X-0.060 Y-8.935 E73.64038
G1 X-0.273 Y-8.668 E73.65482
G1 X-0.540 Y-8.935 E73.67081
G1 X-0.682 Y-8.597 E73.68630
G1 X-1.019 Y-8.935 E73.70649
G1 X-1.499 Y-8.935 E73.72679
G1 X-0.986 Y-8.422 E73.75748
G1 X-1.290 Y-8.246 E73.77234
G1 X-1.979 Y-8.935 E73.81354
G1 X-2.459 Y-8.935 E73.83384
G1 X-1.594 Y-8.070 E73.88555
G1 X-1.899 Y-7.895 E73.90040
G1 X-2.938 Y-8.935 E73.96262
G1 X-3.418 Y-8.935 E73.98291
G1 X-2.203 Y-7.719 E74.05563
G1 X-2.507 Y-7.544 E74.07049
G1 X-3.898 Y-8.935 E74.15371
G1 X-4.377 Y-8.935 E74.17401
G1 X-2.811 Y-7.368 E74.26774
G1 X-3.115 Y-7.193 E74.28260
G1 X-4.857 Y-8.935 E74.38683
G1 X-5.337 Y-8.935 E74.40713
G1 X-3.419 Y-7.017 E74.52187
G1 X-3.723 Y-6.841 E74.53673
G1 X-5.817 Y-8.935 E74.66198
G1 X-6.296 Y-8.935 E74.68227
G1 X-4.027 Y-6.666 E74.81803
G1 X-4.332 Y-6.490 E74.83288
G1 X-6.776 Y-8.935 E74.97914
G1 X-7.256 Y-8.935 E74.99944
G1 X-4.636 Y-6.315 E75.15620
G1 X-4.940 Y-6.139 E75.17106
G1 X-7.735 Y-8.935 E75.33833
G1 X-8.215 Y-8.935 E75.35863
G1 X-5.244 Y-5.963 E75.53640
G1 X-5.548 Y-5.788 E75.55126
G1 X-8.277 Y-8.517 E75.71456
G1 X-8.277 Y-8.038 E75.73486
G1 X-5.852 Y-5.612 E75.87997
G1 X-6.156 Y-5.437 E75.89483
G1 X-8.277 Y-7.558 E76.02174
G1 X-8.277 Y-7.078 E76.04203
G1 X-6.460 Y-5.261 E76.15075
G1 X-6.765 Y-5.086 E76.16560
G1 X-8.277 Y-6.598 E76.25612
G1 X-8.277 Y-6.119 E76.27642
G1 X-7.069 Y-4.910 E76.34874
G1 X-7.257 Y-4.618 E76.36342
G1 X-8.277 Y-5.639 E76.42448
G1 X-8.277 Y-5.159 E76.44478
G1 X-7.436 Y-4.317 E76.49514
G1 X-7.607 Y-4.009 E76.51007
G1 X-8.277 Y-4.680 E76.55017
G1 X-8.277 Y-4.200 E76.57046
G1 X-7.747 Y-3.669 E76.60221
G1 X-7.747 Y-3.190 E76.62250
G1 X-8.277 Y-3.720 E76.65425
G1 X-8.277 Y-3.240 E76.67454
G1 X-7.747 Y-2.710 E76.70629
G1 X-7.747 Y-2.230 E76.72658
G1 X-8.277 Y-2.761 E76.75833
G1 X-8.277 Y-2.281 E76.77862
G1 X-7.747 Y-1.750 E76.81037
G1 X-7.747 Y-1.271 E76.83067
G1 X-8.277 Y-1.801 E76.86241
G1 X-8.277 Y-1.322 E76.88271
G1 X-7.747 Y-0.791 E76.91445
G1 X-7.747 Y-0.311 E76.93475
G1 X-8.277 Y-0.842 E76.96649
G1 X-8.277 Y-0.362 E76.98679
G1 X-7.747 Y0.168 E77.01853
G1 X-7.747 Y0.648 E77.03883
G1 X-8.277 Y0.118 E77.07057
G1 X-8.277 Y0.597 E77.09087
G1 X-7.747 Y1.128 E77.12261
G1 X-7.747 Y1.608 E77.14291
G1 X-8.277 Y1.077 E77.17466
G1 X-8.277 Y1.557 E77.19495
G1 X-7.747 Y2.087 E77.22670
G1 X-7.747 Y2.567 E77.24699
G1 X-8.277 Y2.036 E77.27874
G1 X-8.277 Y2.516 E77.29903
G1 X-7.747 Y3.047 E77.33078
G1 X-7.747 Y3.526 E77.35107
G1 X-8.277 Y2.996 E77.38282
G1 X-8.277 Y3.476 E77.40311
G1 X-7.438 Y4.315 E77.45334
G1 X-8.277 Y4.435 F7800.000
G1 X-3.778 Y8.935 E77.72257 F720.000
G1 X-3.298 Y8.935 E77.74287
G1 X-8.277 Y3.955 E78.04080
G1 X-8.277 Y4.915 F7800.000
G1 X-4.257 Y8.935 E78.28132 F720.000
G1 X-4.737 Y8.935 E78.30162
G1 X-8.277 Y5.394 E78.51345
G1 X-8.277 Y5.874 E78.53374
G1 X-5.217 Y8.935 E78.71686
G1 X-5.697 Y8.935 E78.73716
G1 X-8.277 Y6.354 E78.89158
G1 X-8.277 Y6.834 E78.91188
G1 X-6.176 Y8.935 E79.03759
G1 X-6.656 Y8.935 E79.05789
G1 X-8.277 Y7.313 E79.15491
G1 X-8.277 Y7.793 E79.17520
G1 X-7.136 Y8.935 E79.24352
G1 X-7.615 Y8.935 E79.26381
G1 X-8.277 Y8.273 E79.30342
G1 X-8.277 Y8.752 E79.32372
G1 X-8.095 Y8.935 E79.33463
G1 X-5.514 Y5.760 F7800.000
G1 X-2.339 Y8.935 E79.52460 F720.000
G1 X-1.859 Y8.935 E79.54490
G1 X-4.379 Y6.415 E79.69567
G1 X-3.244 Y7.070 F7800.000
G1 X-1.379 Y8.935 E79.80723 F720.000
G1 X-0.899 Y8.935 E79.82752
G1 X-2.109 Y7.725 E79.89988
G1 X-0.974 Y8.381 F7800.000
G1 X-0.420 Y8.935 E79.93302 F720.000
G1 X-0.336 Y8.538 E79.95016
G1 X0.060 Y8.935 E79.97388
G1 X0.147 Y8.542 E79.99089
G1 X0.540 Y8.935 E80.01437
G1 X0.613 Y8.528 E80.03185
G1 X1.019 Y8.935 E80.05619
G1 X1.499 Y8.935 E80.07649
G1 X0.917 Y8.353 E80.11132
G1 X1.221 Y8.177 E80.12617
G1 X1.979 Y8.935 E80.17151
G1 X2.459 Y8.935 E80.19181
G1 X1.525 Y8.001 E80.24764
G1 X1.829 Y7.826 E80.26250
G1 X2.938 Y8.935 E80.32885
G1 X3.418 Y8.935 E80.34914
G1 X2.134 Y7.650 E80.42599
G1 X2.438 Y7.475 E80.44085
G1 X3.898 Y8.935 E80.52820
G1 X4.377 Y8.935 E80.54850
G1 X2.742 Y7.299 E80.64635
G1 X3.046 Y7.124 E80.66121
G1 X4.857 Y8.935 E80.76957
G1 X5.337 Y8.935 E80.78987
G1 X3.350 Y6.948 E80.90873
G1 X3.654 Y6.772 E80.92359
G1 X5.817 Y8.935 E81.05296
G1 X6.296 Y8.935 E81.07325
G1 X3.958 Y6.597 E81.21313
G1 X4.263 Y6.421 E81.22799
G1 X6.776 Y8.935 E81.37836
G1 X7.256 Y8.935 E81.39866
G1 X4.567 Y6.246 E81.55954
G1 X4.871 Y6.070 E81.57440
G1 X7.735 Y8.935 E81.74579
G1 X8.215 Y8.935 E81.76608
G1 X5.175 Y5.895 E81.94797
G1 X5.479 Y5.719 E81.96283
G1 X8.277 Y8.517 E82.13025
G1 X8.277 Y8.038 E82.15055
G1 X5.783 Y5.544 E82.29977
G1 X6.088 Y5.368 E82.31463
G1 X8.277 Y7.558 E82.44565
G1 X8.277 Y7.078 E82.46595
G1 X6.392 Y5.192 E82.57877
G1 X6.696 Y5.017 E82.59363
G1 X8.277 Y6.598 E82.68826
G1 X8.277 Y6.119 E82.70855
G1 X7.000 Y4.841 E82.78498
G1 X7.214 Y4.576 E82.79942
G1 X8.277 Y5.639 E82.86305
G1 X8.277 Y5.159 E82.88334
G1 X7.390 Y4.271 E82.93647
G1 X7.565 Y3.967 E82.95133
G1 X8.277 Y4.680 E82.99394
G1 X8.277 Y4.200 E83.01424
G1 X7.741 Y3.663 E83.04635
G1 X7.784 Y3.227 E83.06492
G1 X8.277 Y3.720 E83.09445
G1 X8.277 Y3.240 E83.11475
G1 X7.784 Y2.747 E83.14428
G1 X7.784 Y2.267 E83.16458
G1 X8.277 Y2.761 E83.19411
G1 X8.277 Y2.281 E83.21441
G1 X7.784 Y1.787 E83.24394
G1 X7.784 Y1.308 E83.26424
G1 X8.277 Y1.801 E83.29377
G1 X8.277 Y1.322 E83.31407
G1 X7.784 Y0.828 E83.34360
G1 X7.784 Y0.348 E83.36390
G1 X8.277 Y0.842 E83.39343
G1 X8.277 Y0.362 E83.41373
G1 X7.784 Y-0.131 E83.44326
G1 X7.784 Y-0.611 E83.46356
G1 X8.277 Y-0.118 E83.49309
G1 X8.277 Y-0.597 E83.51339
G1 X7.784 Y-1.091 E83.54292
G1 X7.784 Y-1.571 E83.56322
G1 X8.277 Y-1.077 E83.59275
G1 X8.277 Y-1.557 E83.61305
